X:151
T:Alan's Reel
M:4/4
L:1/8
C:Frederick E. Wilson
R:Reel
K:EMin
"Emi"E3F GFGA |BcAc "D"BAGF|"Emi"E3 F G2EG| "D"FDA,D "Bmi"FEFG|
"Emi"E3F GFGA |BcAc "A7"B2 ^c^d|"Emi"edcB "Ami"cBAc |"Bmi"BAGF "Emi"GE E
2:|
"Emi"e2ef gfed|"C"edcB A2 GA|"Bmi"B2 Bc BAGF|"Emi"EFGA B2 B2|
"Emi"e2 ef "D/F#"gfed|"G"efgb "Ami"a2 ga|"Bmi"b2 bb bagf|"Emi"e2B2 e4:|
